X:1
T:RVW2/1/59 Gilderoy
T:RVW2/1/59 Gilderoy
T:Transcribed by Simon Furey and Lewis Jones
C:Transcribed by Simon Furey and Lewis Jones
L:1/8
Q:1/4=100
M:4/4
K:C
V:1 treble 
V:1
"^Editorial suggestion" G2 | c3 d c2 A2 | A2 G2 A2 A2 | G2 E2 CEGA | (F3 D) E2 AG | F2 D2 DEFG | %6
 B3 A G2 c2 | c3 E E2 D2 | C6 |] %9

